images/3232901.svg

<?xml version="1.0" encoding="UTF-8"?>
<svg xmlns="http://www.w3.org/2000/svg" xmlns:xlink="http://www.w3.org/1999/xlink" width="300pt" height="300pt" viewBox="0 0 300 300" version="1.1">
<defs>
<g>
<symbol overflow="visible" id="glyph0-0">
<path style="stroke:none;" d="M 0.546875 1.9375 L 0.546875 -7.75 L 6.046875 -7.75 L 6.046875 1.9375 Z M 1.171875 1.328125 L 5.4375 1.328125 L 5.4375 -7.140625 L 1.171875 -7.140625 Z M 1.171875 1.328125 "/>
</symbol>
<symbol overflow="visible" id="glyph0-1">
<path style="stroke:none;" d="M 1.078125 -8.015625 L 2.546875 -8.015625 L 6.09375 -1.3125 L 6.09375 -8.015625 L 7.15625 -8.015625 L 7.15625 0 L 5.6875 0 L 2.125 -6.703125 L 2.125 0 L 1.078125 0 Z M 1.078125 -8.015625 "/>
</symbol>
<symbol overflow="visible" id="glyph0-2">
<path style="stroke:none;" d="M 1.078125 -8.015625 L 2.171875 -8.015625 L 2.171875 -4.734375 L 6.109375 -4.734375 L 6.109375 -8.015625 L 7.1875 -8.015625 L 7.1875 0 L 6.109375 0 L 6.109375 -3.8125 L 2.171875 -3.8125 L 2.171875 0 L 1.078125 0 Z M 1.078125 -8.015625 "/>
</symbol>
<symbol overflow="visible" id="glyph0-3">
<path style="stroke:none;" d="M 1.078125 -8.015625 L 5.6875 -8.015625 L 5.6875 -7.109375 L 2.171875 -7.109375 L 2.171875 -4.75 L 5.34375 -4.75 L 5.34375 -3.828125 L 2.171875 -3.828125 L 2.171875 0 L 1.078125 0 Z M 1.078125 -8.015625 "/>
</symbol>
</g>
</defs>
<g id="surface31997">
<rect x="0" y="0" width="300" height="300" style="fill:rgb(100%,100%,100%);fill-opacity:1;stroke:none;"/>
<path style="fill:none;stroke-width:1.2;stroke-linecap:butt;stroke-linejoin:miter;stroke:rgb(0%,0%,0%);stroke-opacity:1;stroke-miterlimit:10;" d="M 89.714844 204.914062 L 64 201.875 "/>
<path style="fill:none;stroke-width:1.2;stroke-linecap:butt;stroke-linejoin:miter;stroke:rgb(0%,0%,0%);stroke-opacity:1;stroke-miterlimit:10;" d="M 87.855469 198.558594 L 67.285156 196.125 "/>
<path style="fill:none;stroke-width:1.2;stroke-linecap:butt;stroke-linejoin:miter;stroke:rgb(0%,0%,0%);stroke-opacity:1;stroke-miterlimit:10;" d="M 105.203125 184.164062 L 89.714844 204.914062 "/>
<path style="fill:none;stroke-width:1.2;stroke-linecap:butt;stroke-linejoin:miter;stroke:rgb(0%,0%,0%);stroke-opacity:1;stroke-miterlimit:10;" d="M 64 201.875 L 53.773438 178.085938 "/>
<path style="fill:none;stroke-width:1.2;stroke-linecap:butt;stroke-linejoin:miter;stroke:rgb(0%,0%,0%);stroke-opacity:1;stroke-miterlimit:10;" d="M 53.773438 178.085938 L 69.261719 157.335938 "/>
<path style="fill:none;stroke-width:1.2;stroke-linecap:butt;stroke-linejoin:miter;stroke:rgb(0%,0%,0%);stroke-opacity:1;stroke-miterlimit:10;" d="M 60.207031 179.65625 L 72.597656 163.054688 "/>
<path style="fill:none;stroke-width:1.2;stroke-linecap:butt;stroke-linejoin:miter;stroke:rgb(0%,0%,0%);stroke-opacity:1;stroke-miterlimit:10;" d="M 69.261719 157.335938 L 94.976562 160.375 "/>
<path style="fill:none;stroke-width:1.2;stroke-linecap:butt;stroke-linejoin:miter;stroke:rgb(0%,0%,0%);stroke-opacity:1;stroke-miterlimit:10;" d="M 69.261719 157.335938 L 59.039062 133.546875 "/>
<path style="fill:none;stroke-width:1.2;stroke-linecap:butt;stroke-linejoin:miter;stroke:rgb(0%,0%,0%);stroke-opacity:1;stroke-miterlimit:10;" d="M 94.976562 160.375 L 105.203125 184.164062 "/>
<path style="fill:none;stroke-width:1.2;stroke-linecap:butt;stroke-linejoin:miter;stroke:rgb(0%,0%,0%);stroke-opacity:1;stroke-miterlimit:10;" d="M 90.402344 165.160156 L 98.582031 184.191406 "/>
<path style="fill:none;stroke-width:1.2;stroke-linecap:butt;stroke-linejoin:miter;stroke:rgb(0%,0%,0%);stroke-opacity:1;stroke-miterlimit:10;" d="M 94.976562 160.375 L 110.464844 139.625 "/>
<path style="fill:none;stroke-width:1.2;stroke-linecap:butt;stroke-linejoin:miter;stroke:rgb(0%,0%,0%);stroke-opacity:1;stroke-miterlimit:10;" d="M 110.464844 139.625 L 136.179688 142.664062 "/>
<path style="fill:none;stroke-width:1.2;stroke-linecap:butt;stroke-linejoin:miter;stroke:rgb(0%,0%,0%);stroke-opacity:1;stroke-miterlimit:10;" d="M 113.753906 133.878906 L 134.324219 136.308594 "/>
<path style="fill:none;stroke-width:1.2;stroke-linecap:butt;stroke-linejoin:miter;stroke:rgb(0%,0%,100%);stroke-opacity:1;stroke-miterlimit:10;" d="M 100.242188 115.835938 L 105.355469 127.730469 "/>
<path style="fill:none;stroke-width:1.2;stroke-linecap:butt;stroke-linejoin:miter;stroke:rgb(0%,0%,0%);stroke-opacity:1;stroke-miterlimit:10;" d="M 105.355469 127.730469 L 110.464844 139.625 "/>
<path style="fill:none;stroke-width:1.2;stroke-linecap:butt;stroke-linejoin:miter;stroke:rgb(0%,0%,0%);stroke-opacity:1;stroke-miterlimit:10;" d="M 136.179688 142.664062 L 151.667969 121.914062 "/>
<path style="fill:none;stroke-width:1.2;stroke-linecap:butt;stroke-linejoin:miter;stroke:rgb(0%,0%,0%);stroke-opacity:1;stroke-miterlimit:10;" d="M 151.667969 121.914062 L 146.558594 110.019531 "/>
<path style="fill:none;stroke-width:1.2;stroke-linecap:butt;stroke-linejoin:miter;stroke:rgb(0%,0%,100%);stroke-opacity:1;stroke-miterlimit:10;" d="M 146.558594 110.019531 L 141.445312 98.125 "/>
<path style="fill:none;stroke-width:1.2;stroke-linecap:butt;stroke-linejoin:miter;stroke:rgb(0%,0%,0%);stroke-opacity:1;stroke-miterlimit:10;" d="M 145.050781 121.941406 L 140.960938 112.425781 "/>
<path style="fill:none;stroke-width:1.2;stroke-linecap:butt;stroke-linejoin:miter;stroke:rgb(0%,0%,100%);stroke-opacity:1;stroke-miterlimit:10;" d="M 140.960938 112.425781 L 136.871094 102.910156 "/>
<path style="fill:none;stroke-width:1.2;stroke-linecap:butt;stroke-linejoin:miter;stroke:rgb(0%,0%,0%);stroke-opacity:1;stroke-miterlimit:10;" d="M 151.667969 121.914062 L 164.527344 123.433594 "/>
<path style="fill:none;stroke-width:1.2;stroke-linecap:butt;stroke-linejoin:miter;stroke:rgb(0%,0%,100%);stroke-opacity:1;stroke-miterlimit:10;" d="M 164.527344 123.433594 L 177.382812 124.953125 "/>
<path style="fill:none;stroke-width:1.2;stroke-linecap:butt;stroke-linejoin:miter;stroke:rgb(0%,0%,100%);stroke-opacity:1;stroke-miterlimit:10;" d="M 141.445312 98.125 L 128.585938 96.605469 "/>
<path style="fill:none;stroke-width:1.2;stroke-linecap:butt;stroke-linejoin:miter;stroke:rgb(0%,0%,0%);stroke-opacity:1;stroke-miterlimit:10;" d="M 128.585938 96.605469 L 115.730469 95.085938 "/>
<path style=" stroke:none;fill-rule:nonzero;fill:rgb(100%,100%,100%);fill-opacity:1;" d="M 137.445312 91.625 L 145.445312 91.625 L 145.445312 104.625 L 137.445312 104.625 Z M 137.445312 91.625 "/>
<g style="fill:rgb(0%,0%,100%);fill-opacity:1;">
  <use xlink:href="#glyph0-1" x="137.445312" y="101.526367"/>
</g>
<path style="fill:none;stroke-width:1.2;stroke-linecap:butt;stroke-linejoin:miter;stroke:rgb(0%,0%,0%);stroke-opacity:1;stroke-miterlimit:10;" d="M 115.730469 95.085938 L 107.984375 105.460938 "/>
<path style="fill:none;stroke-width:1.2;stroke-linecap:butt;stroke-linejoin:miter;stroke:rgb(0%,0%,100%);stroke-opacity:1;stroke-miterlimit:10;" d="M 107.984375 105.460938 L 100.242188 115.835938 "/>
<path style="fill:none;stroke-width:1.2;stroke-linecap:butt;stroke-linejoin:miter;stroke:rgb(0%,0%,0%);stroke-opacity:1;stroke-miterlimit:10;" d="M 119.0625 100.808594 L 112.867188 109.105469 "/>
<path style="fill:none;stroke-width:1.2;stroke-linecap:butt;stroke-linejoin:miter;stroke:rgb(0%,0%,100%);stroke-opacity:1;stroke-miterlimit:10;" d="M 112.867188 109.105469 L 106.671875 117.40625 "/>
<path style=" stroke:none;fill-rule:nonzero;fill:rgb(100%,100%,100%);fill-opacity:1;" d="M 96.242188 109.335938 L 104.242188 109.335938 L 104.242188 122.335938 L 96.242188 122.335938 Z M 96.242188 109.335938 "/>
<g style="fill:rgb(0%,0%,100%);fill-opacity:1;">
  <use xlink:href="#glyph0-1" x="96.242188" y="119.237305"/>
</g>
<path style="fill:none;stroke-width:1.2;stroke-linecap:butt;stroke-linejoin:miter;stroke:rgb(0%,0%,100%);stroke-opacity:1;stroke-miterlimit:10;" d="M 177.382812 124.953125 L 182.496094 136.847656 "/>
<path style="fill:none;stroke-width:1.2;stroke-linecap:butt;stroke-linejoin:miter;stroke:rgb(0%,0%,0%);stroke-opacity:1;stroke-miterlimit:10;" d="M 182.496094 136.847656 L 187.609375 148.742188 "/>
<path style=" stroke:none;fill-rule:nonzero;fill:rgb(100%,100%,100%);fill-opacity:1;" d="M 169.382812 118.453125 L 186.382812 118.453125 L 186.382812 131.453125 L 169.382812 131.453125 Z M 169.382812 118.453125 "/>
<g style="fill:rgb(0%,0%,100%);fill-opacity:1;">
  <use xlink:href="#glyph0-1" x="169.382812" y="128.354492"/>
  <use xlink:href="#glyph0-2" x="177.366211" y="128.354492"/>
</g>
<path style="fill:none;stroke-width:1.2;stroke-linecap:butt;stroke-linejoin:miter;stroke:rgb(0%,0%,0%);stroke-opacity:1;stroke-miterlimit:10;" d="M 187.609375 148.742188 L 213.320312 151.78125 "/>
<path style="fill:none;stroke-width:1.2;stroke-linecap:butt;stroke-linejoin:miter;stroke:rgb(0%,0%,0%);stroke-opacity:1;stroke-miterlimit:10;" d="M 213.320312 151.78125 L 223.546875 175.570312 "/>
<path style="fill:none;stroke-width:1.2;stroke-linecap:butt;stroke-linejoin:miter;stroke:rgb(0%,0%,0%);stroke-opacity:1;stroke-miterlimit:10;" d="M 219.941406 151.753906 L 228.121094 170.785156 "/>
<path style="fill:none;stroke-width:1.2;stroke-linecap:butt;stroke-linejoin:miter;stroke:rgb(0%,0%,0%);stroke-opacity:1;stroke-miterlimit:10;" d="M 228.8125 131.03125 L 213.320312 151.78125 "/>
<path style="fill:none;stroke-width:1.2;stroke-linecap:butt;stroke-linejoin:miter;stroke:rgb(0%,0%,0%);stroke-opacity:1;stroke-miterlimit:10;" d="M 223.546875 175.570312 L 236.402344 177.089844 "/>
<path style="fill:none;stroke-width:1.2;stroke-linecap:butt;stroke-linejoin:miter;stroke:rgb(0%,0%,100%);stroke-opacity:1;stroke-miterlimit:10;" d="M 236.402344 177.089844 L 249.261719 178.609375 "/>
<path style="fill:none;stroke-width:1.2;stroke-linecap:butt;stroke-linejoin:miter;stroke:rgb(0%,0%,100%);stroke-opacity:1;stroke-miterlimit:10;" d="M 249.261719 178.609375 L 257.003906 168.234375 "/>
<path style="fill:none;stroke-width:1.2;stroke-linecap:butt;stroke-linejoin:miter;stroke:rgb(0%,0%,0%);stroke-opacity:1;stroke-miterlimit:10;" d="M 257.003906 168.234375 L 264.75 157.859375 "/>
<path style="fill:none;stroke-width:1.2;stroke-linecap:butt;stroke-linejoin:miter;stroke:rgb(0%,0%,100%);stroke-opacity:1;stroke-miterlimit:10;" d="M 245.929688 172.890625 L 252.125 164.589844 "/>
<path style="fill:none;stroke-width:1.2;stroke-linecap:butt;stroke-linejoin:miter;stroke:rgb(0%,0%,0%);stroke-opacity:1;stroke-miterlimit:10;" d="M 252.125 164.589844 L 258.320312 156.289062 "/>
<path style=" stroke:none;fill-rule:nonzero;fill:rgb(100%,100%,100%);fill-opacity:1;" d="M 245.261719 172.109375 L 253.261719 172.109375 L 253.261719 185.109375 L 245.261719 185.109375 Z M 245.261719 172.109375 "/>
<g style="fill:rgb(0%,0%,100%);fill-opacity:1;">
  <use xlink:href="#glyph0-1" x="245.261719" y="182.010742"/>
</g>
<path style="fill:none;stroke-width:1.2;stroke-linecap:butt;stroke-linejoin:miter;stroke:rgb(0%,0%,0%);stroke-opacity:1;stroke-miterlimit:10;" d="M 264.75 157.859375 L 254.523438 134.070312 "/>
<path style="fill:none;stroke-width:1.2;stroke-linecap:butt;stroke-linejoin:miter;stroke:rgb(0%,0%,0%);stroke-opacity:1;stroke-miterlimit:10;" d="M 254.523438 134.070312 L 228.8125 131.03125 "/>
<path style="fill:none;stroke-width:1.2;stroke-linecap:butt;stroke-linejoin:miter;stroke:rgb(0%,0%,0%);stroke-opacity:1;stroke-miterlimit:10;" d="M 251.238281 139.816406 L 230.667969 137.386719 "/>
<path style="fill:none;stroke-width:1.2;stroke-linecap:butt;stroke-linejoin:miter;stroke:rgb(0%,0%,0%);stroke-opacity:1;stroke-miterlimit:10;" d="M 59.039062 133.546875 L 53.925781 121.652344 "/>
<path style="fill:none;stroke-width:1.2;stroke-linecap:butt;stroke-linejoin:miter;stroke:rgb(20%,80%,80%);stroke-opacity:1;stroke-miterlimit:10;" d="M 53.925781 121.652344 L 48.8125 109.757812 "/>
<path style="fill:none;stroke-width:1.2;stroke-linecap:butt;stroke-linejoin:miter;stroke:rgb(0%,0%,0%);stroke-opacity:1;stroke-miterlimit:10;" d="M 59.039062 133.546875 L 70.933594 128.433594 "/>
<path style="fill:none;stroke-width:1.2;stroke-linecap:butt;stroke-linejoin:miter;stroke:rgb(20%,80%,80%);stroke-opacity:1;stroke-miterlimit:10;" d="M 70.933594 128.433594 L 82.828125 123.320312 "/>
<path style="fill:none;stroke-width:1.2;stroke-linecap:butt;stroke-linejoin:miter;stroke:rgb(0%,0%,0%);stroke-opacity:1;stroke-miterlimit:10;" d="M 59.039062 133.546875 L 47.144531 138.660156 "/>
<path style="fill:none;stroke-width:1.2;stroke-linecap:butt;stroke-linejoin:miter;stroke:rgb(20%,80%,80%);stroke-opacity:1;stroke-miterlimit:10;" d="M 47.144531 138.660156 L 35.25 143.773438 "/>
<path style=" stroke:none;fill-rule:nonzero;fill:rgb(100%,100%,100%);fill-opacity:1;" d="M 41.8125 103.257812 L 48.8125 103.257812 L 48.8125 116.257812 L 41.8125 116.257812 Z M 41.8125 103.257812 "/>
<g style="fill:rgb(20%,80%,80%);fill-opacity:1;">
  <use xlink:href="#glyph0-3" x="41.8125" y="113.15918"/>
</g>
<path style=" stroke:none;fill-rule:nonzero;fill:rgb(100%,100%,100%);fill-opacity:1;" d="M 79.828125 116.820312 L 86.828125 116.820312 L 86.828125 129.820312 L 79.828125 129.820312 Z M 79.828125 116.820312 "/>
<g style="fill:rgb(20%,80%,80%);fill-opacity:1;">
  <use xlink:href="#glyph0-3" x="79.828125" y="126.72168"/>
</g>
<path style=" stroke:none;fill-rule:nonzero;fill:rgb(100%,100%,100%);fill-opacity:1;" d="M 28.25 137.273438 L 35.25 137.273438 L 35.25 150.273438 L 28.25 150.273438 Z M 28.25 137.273438 "/>
<g style="fill:rgb(20%,80%,80%);fill-opacity:1;">
  <use xlink:href="#glyph0-3" x="28.25" y="147.174805"/>
</g>
</g>
</svg>

<svg xmlns="http://www.w3.org/2000/svg" xmlns:xlink="http://www.w3.org/1999/xlink" width="300pt" height="300pt" viewBox="0 0 300 300"><defs><symbol overflow="visible"><path d="M.547 1.938V-7.75h5.5v9.688zm.625-.61h4.266v-8.47H1.171zm0 0"/></symbol><symbol overflow="visible" id="a"><path d="M1.078-8.016h1.47l3.546 6.704v-6.704h1.062V0H5.688L2.124-6.703V0H1.078zm0 0"/></symbol><symbol overflow="visible" id="b"><path d="M1.078-8.016h1.094v3.282H6.11v-3.282h1.077V0H6.11v-3.813H2.17V0H1.078zm0 0"/></symbol><symbol overflow="visible" id="c"><path d="M1.078-8.016h4.61v.907H2.171v2.36h3.172v.922H2.172V0H1.078zm0 0"/></symbol></defs><g><path fill="#fff" d="M0 0h300v300H0z"/><path d="M89.715 204.914L64 201.874M87.855 198.56l-20.57-2.435M105.203 184.164l-15.488 20.75M64 201.875l-10.227-23.79M53.773 178.086l15.49-20.75M60.207 179.656l12.39-16.6M69.262 157.336l25.715 3.04M69.262 157.336l-10.223-23.79M94.977 160.375l10.226 23.79M90.402 165.16l8.18 19.03M94.977 160.375l15.488-20.75M110.465 139.625l25.715 3.04M113.754 133.88l20.57 2.43" stroke-width="1.2" stroke="#000" stroke-miterlimit="10" fill="none"/><path d="M100.242 115.836l5.113 11.894" stroke-width="1.2" stroke="#00f" stroke-miterlimit="10" fill="none"/><path d="M105.355 127.73l5.11 11.895M136.18 142.664l15.488-20.75M151.668 121.914l-5.11-11.894" stroke-width="1.2" stroke="#000" stroke-miterlimit="10" fill="none"/><path d="M146.56 110.02l-5.115-11.895" stroke-width="1.2" stroke="#00f" stroke-miterlimit="10" fill="none"/><path d="M145.05 121.94l-4.09-9.514" stroke-width="1.2" stroke="#000" stroke-miterlimit="10" fill="none"/><path d="M140.96 112.426l-4.09-9.516" stroke-width="1.2" stroke="#00f" stroke-miterlimit="10" fill="none"/><path d="M151.668 121.914l12.86 1.52" stroke-width="1.2" stroke="#000" stroke-miterlimit="10" fill="none"/><path d="M164.527 123.434l12.856 1.52M141.445 98.125l-12.86-1.52" stroke-width="1.2" stroke="#00f" stroke-miterlimit="10" fill="none"/><path d="M128.586 96.605l-12.856-1.52" stroke-width="1.2" stroke="#000" stroke-miterlimit="10" fill="none"/><path d="M137.445 91.625h8v13h-8zm0 0" fill="#fff"/><use xlink:href="#a" x="137.445" y="101.526" fill="#00f"/><path d="M115.73 95.086l-7.746 10.375" stroke-width="1.2" stroke="#000" stroke-miterlimit="10" fill="none"/><path d="M107.984 105.46l-7.742 10.376" stroke-width="1.2" stroke="#00f" stroke-miterlimit="10" fill="none"/><path d="M119.063 100.81l-6.196 8.295" stroke-width="1.2" stroke="#000" stroke-miterlimit="10" fill="none"/><path d="M112.867 109.105l-6.195 8.3" stroke-width="1.2" stroke="#00f" stroke-miterlimit="10" fill="none"/><path d="M96.242 109.336h8v13h-8zm0 0" fill="#fff"/><use xlink:href="#a" x="96.242" y="119.237" fill="#00f"/><path d="M177.383 124.953l5.113 11.895" stroke-width="1.2" stroke="#00f" stroke-miterlimit="10" fill="none"/><path d="M182.496 136.848l5.113 11.894" stroke-width="1.2" stroke="#000" stroke-miterlimit="10" fill="none"/><path d="M169.383 118.453h17v13h-17zm0 0" fill="#fff"/><g fill="#00f"><use xlink:href="#a" x="169.383" y="128.354"/><use xlink:href="#b" x="177.366" y="128.354"/></g><path d="M187.61 148.742l25.71 3.04M213.32 151.78l10.227 23.79M219.94 151.754l8.18 19.03M228.813 131.03l-15.493 20.75M223.547 175.57l12.855 1.52" stroke-width="1.2" stroke="#000" stroke-miterlimit="10" fill="none"/><path d="M236.402 177.09l12.86 1.52M249.262 178.61l7.742-10.376" stroke-width="1.2" stroke="#00f" stroke-miterlimit="10" fill="none"/><path d="M257.004 168.234l7.746-10.375" stroke-width="1.2" stroke="#000" stroke-miterlimit="10" fill="none"/><path d="M245.93 172.89l6.195-8.3" stroke-width="1.2" stroke="#00f" stroke-miterlimit="10" fill="none"/><path d="M252.125 164.59l6.195-8.3" stroke-width="1.2" stroke="#000" stroke-miterlimit="10" fill="none"/><path d="M245.262 172.11h8v13h-8zm0 0" fill="#fff"/><use xlink:href="#a" x="245.262" y="182.011" fill="#00f"/><path d="M264.75 157.86l-10.227-23.79M254.523 134.07l-25.71-3.04M251.238 139.816l-20.57-2.43M59.04 133.547l-5.114-11.895" stroke-width="1.2" stroke="#000" stroke-miterlimit="10" fill="none"/><path d="M53.926 121.652l-5.114-11.894" stroke-width="1.2" stroke="#3cc" stroke-miterlimit="10" fill="none"/><path d="M59.04 133.547l11.894-5.113" stroke-width="1.2" stroke="#000" stroke-miterlimit="10" fill="none"/><path d="M70.934 128.434l11.894-5.114" stroke-width="1.2" stroke="#3cc" stroke-miterlimit="10" fill="none"/><path d="M59.04 133.547l-11.895 5.113" stroke-width="1.2" stroke="#000" stroke-miterlimit="10" fill="none"/><path d="M47.145 138.66l-11.895 5.113" stroke-width="1.2" stroke="#3cc" stroke-miterlimit="10" fill="none"/><path d="M41.813 103.258h7v13h-7zm0 0" fill="#fff"/><use xlink:href="#c" x="41.813" y="113.159" fill="#3cc"/><path d="M79.828 116.82h7v13h-7zm0 0" fill="#fff"/><use xlink:href="#c" x="79.828" y="126.722" fill="#3cc"/><path d="M28.25 137.273h7v13h-7zm0 0" fill="#fff"/><use xlink:href="#c" x="28.25" y="147.175" fill="#3cc"/></g></svg>
